assets/svg/1F51D.svg

<svg xmlns="http://www.w3.org/2000/svg" viewBox="0 0 64 64" enable-background="new 0 0 64 64"><path fill="#1b75bb" d="m64.19 57.14c0 3.816-3.088 6.908-6.902 6.908h-50.24c-3.81 0-6.898-3.092-6.898-6.908v-50.23c0-3.812 3.088-6.904 6.898-6.904h50.24c3.814 0 6.902 3.092 6.902 6.904v50.23z"/><path fill="#0867a3" d="m.146 48.765v8.372c0 3.816 3.088 6.908 6.898 6.908h50.24c3.814 0 6.902-3.092 6.902-6.908v-50.23c-10.934 39.724-50.25 42.24-64.04 41.861"/><g fill="#fff"><path d="m21.756 24.07c0-1.316-.905-2.307-2.104-2.307h-15.741c-1.204 0-2.107.991-2.107 2.307 0 1.281.917 2.249 2.134 2.249h5.467v17.721c0 1.293.981 2.189 2.386 2.189 1.409 0 2.394-.896 2.394-2.189v-17.721h5.467c1.18 0 2.104-.987 2.104-2.249"/><path d="m31.22 21.335c-6.694 0-11.02 4.932-11.02 12.562 0 7.665 4.326 12.618 11.02 12.618 6.661 0 10.96-4.94 10.96-12.589.0001-7.65-4.299-12.591-10.96-12.591m0 20.657c-3.796 0-6.153-3.089-6.153-8.06 0-4.995 2.356-8.099 6.153-8.099 3.761 0 6.098 3.039 6.098 7.926 0 5.236-2.222 8.238-6.098 8.238"/><path d="m54.45 21.762h-6.345c-2.608 0-3.932 1.381-3.932 4.105v18.11c0 1.346.95 2.246 2.362 2.246 1.387 0 2.36-.912 2.36-2.217v-7.07h5.439c5.128 0 8.19-2.909 8.19-7.79.002-4.624-3.02-7.39-8.07-7.39m3.239 7.449c0 2.217-1.115 3.295-3.413 3.295h-5.38v-6.279h5.38c2.298.0001 3.413.976 3.413 2.984"/></g></svg>

<?xml version="1.0" encoding="UTF-8" standalone="no"?>
<!-- Generator: Adobe Illustrator 16.0.0, SVG Export Plug-In . SVG Version: 6.00 Build 0)  -->

<svg
   xmlns:dc="http://purl.org/dc/elements/1.1/"
   xmlns:cc="http://creativecommons.org/ns#"
   xmlns:rdf="http://www.w3.org/1999/02/22-rdf-syntax-ns#"
   xmlns:svg="http://www.w3.org/2000/svg"
   xmlns="http://www.w3.org/2000/svg"
   xmlns:sodipodi="http://sodipodi.sourceforge.net/DTD/sodipodi-0.dtd"
   xmlns:inkscape="http://www.inkscape.org/namespaces/inkscape"
   version="1.1"
   id="Layer_1"
   x="0px"
   y="0px"
   width="64px"
   height="64px"
   viewBox="0 0 64 64"
   enable-background="new 0 0 64 64"
   xml:space="preserve"
   inkscape:version="0.48.5 r10040"
   sodipodi:docname="1F51D.svg"
   inkscape:export-filename="D:\TESTINGEMOJI\SVGTEST\1F51D.png"
   inkscape:export-xdpi="90"
   inkscape:export-ydpi="90"><metadata
   id="metadata3735"><rdf:RDF><cc:Work
       rdf:about=""><dc:format>image/svg+xml</dc:format><dc:type
         rdf:resource="http://purl.org/dc/dcmitype/StillImage" /><dc:title></dc:title></cc:Work></rdf:RDF></metadata><defs
   id="defs3733" /><sodipodi:namedview
   pagecolor="#ffffff"
   bordercolor="#666666"
   borderopacity="1"
   objecttolerance="10"
   gridtolerance="10"
   guidetolerance="10"
   inkscape:pageopacity="0"
   inkscape:pageshadow="2"
   inkscape:window-width="640"
   inkscape:window-height="480"
   id="namedview3731"
   showgrid="false"
   inkscape:zoom="3.6875"
   inkscape:cx="32"
   inkscape:cy="32"
   inkscape:window-x="505"
   inkscape:window-y="273"
   inkscape:window-maximized="0"
   inkscape:current-layer="Layer_1" />
<g
   id="g3715">
	<g
   id="g3717">
		<path
   fill="#1B75BB"
   d="M64.185,57.137c0,3.816-3.088,6.908-6.902,6.908H7.044c-3.81,0-6.898-3.092-6.898-6.908V6.904    C0.146,3.092,3.234,0,7.044,0h50.238c3.814,0,6.902,3.092,6.902,6.904V57.137z"
   id="path3719" />
		<path
   fill="#0867A3"
   d="M0.146,48.765v8.372c0,3.816,3.088,6.908,6.898,6.908h50.238c3.814,0,6.902-3.092,6.902-6.908V6.904    C53.25,46.628,13.938,49.146,0.146,48.765z"
   id="path3721" />
	</g>
	<g
   id="g3723">
		<path
   fill="#FFFFFF"
   d="M21.756,24.069c0-1.316-0.905-2.307-2.104-2.307H3.911c-1.204,0-2.107,0.991-2.107,2.307    c0,1.281,0.917,2.249,2.134,2.249h5.467v17.721c0,1.293,0.981,2.189,2.386,2.189c1.409,0,2.394-0.896,2.394-2.189V26.318h5.467    C20.832,26.318,21.756,25.331,21.756,24.069z"
   id="path3725" />
		<path
   fill="#FFFFFF"
   d="M31.222,21.335c-6.694,0-11.02,4.932-11.02,12.562c0,7.665,4.326,12.618,11.02,12.618    c6.661,0,10.96-4.94,10.96-12.589C42.183,26.276,37.883,21.335,31.222,21.335z M31.222,41.992c-3.796,0-6.153-3.089-6.153-8.065    c0-4.995,2.356-8.099,6.153-8.099c3.761,0,6.098,3.039,6.098,7.926C37.32,38.99,35.098,41.992,31.222,41.992z"
   id="path3727" />
		<path
   fill="#FFFFFF"
   d="M54.45,21.762h-6.345c-2.608,0-3.932,1.381-3.932,4.105v18.115c0,1.346,0.95,2.246,2.362,2.246    c1.387,0,2.36-0.912,2.36-2.217v-7.069h5.439c5.128,0,8.19-2.909,8.19-7.79C62.526,24.528,59.507,21.762,54.45,21.762z     M57.689,29.211c0,2.217-1.115,3.295-3.413,3.295h-5.38v-6.279h5.38C56.574,26.228,57.689,27.203,57.689,29.211z"
   id="path3729" />
	</g>
</g>
</svg>
